app/img/meet-bg-mobile.svg

<svg width="237" height="206" viewBox="0 0 237 206" fill="none" xmlns="http://www.w3.org/2000/svg">
    <g filter="url(#filter0_d_1021:1087)">
        <circle cx="87" cy="109" r="73" fill="url(#paint0_linear_1021:1087)"/>
    </g>
    <g filter="url(#filter1_d_1021:1087)">
        <circle cx="198.5" cy="48.5" r="16.5" fill="url(#paint1_linear_1021:1087)"/>
    </g>
    <g opacity="0.81">
        <path opacity="0.81"
              d="M40.8005 128.07C75.7482 128.07 104.079 99.7393 104.079 64.7916C104.079 29.8439 75.7482 1.51318 40.8005 1.51318C5.8528 1.51318 -22.4779 29.8439 -22.4779 64.7916C-22.4779 99.7393 5.8528 128.07 40.8005 128.07Z"
              stroke="#FAFAFA" stroke-width="1.05" stroke-linecap="round" stroke-linejoin="round"/>
        <path opacity="0.81"
              d="M40.8005 125.651C74.4124 125.651 101.66 98.4032 101.66 64.7914C101.66 31.1795 74.4124 3.93164 40.8005 3.93164C7.18862 3.93164 -20.0592 31.1795 -20.0592 64.7914C-20.0592 98.4032 7.18862 125.651 40.8005 125.651Z"
              stroke="#FAFAFA" stroke-linecap="round" stroke-linejoin="round"/>
        <path opacity="0.81"
              d="M40.8005 123.237C73.0789 123.237 99.2457 97.0699 99.2457 64.7914C99.2457 32.513 73.0789 6.34619 40.8005 6.34619C8.52206 6.34619 -17.6448 32.513 -17.6448 64.7914C-17.6448 97.0699 8.52206 123.237 40.8005 123.237Z"
              stroke="#FAFAFA" stroke-linecap="round" stroke-linejoin="round"/>
        <path opacity="0.81"
              d="M40.8005 120.818C71.7431 120.818 96.827 95.7338 96.827 64.7912C96.827 33.8486 71.7431 8.76465 40.8005 8.76465C9.85787 8.76465 -15.2261 33.8486 -15.2261 64.7912C-15.2261 95.7338 9.85787 120.818 40.8005 120.818Z"
              stroke="#FAFAFA" stroke-linecap="round" stroke-linejoin="round"/>
        <path opacity="0.81"
              d="M40.8004 118.404C70.4096 118.404 94.4125 94.4009 94.4125 64.7918C94.4125 35.1826 70.4096 11.1797 40.8004 11.1797C11.1913 11.1797 -12.8116 35.1826 -12.8116 64.7918C-12.8116 94.4009 11.1913 118.404 40.8004 118.404Z"
              stroke="#FAFAFA" stroke-linecap="round" stroke-linejoin="round"/>
        <path opacity="0.81"
              d="M40.8005 115.985C69.0738 115.985 91.9939 93.0649 91.9939 64.7915C91.9939 36.5182 69.0738 13.5981 40.8005 13.5981C12.5271 13.5981 -10.3929 36.5182 -10.3929 64.7915C-10.3929 93.0649 12.5271 115.985 40.8005 115.985Z"
              stroke="#FAFAFA" stroke-linecap="round" stroke-linejoin="round"/>
        <path opacity="0.81"
              d="M40.8005 113.567C67.738 113.567 89.5752 91.7293 89.5752 64.7918C89.5752 37.8543 67.738 16.0171 40.8005 16.0171C13.863 16.0171 -7.97424 37.8543 -7.97424 64.7918C-7.97424 91.7293 13.863 113.567 40.8005 113.567Z"
              stroke="#FAFAFA" stroke-linecap="round" stroke-linejoin="round"/>
        <path opacity="0.81"
              d="M40.8005 111.152C66.4046 111.152 87.1608 90.3955 87.1608 64.7914C87.1608 39.1873 66.4046 18.4312 40.8005 18.4312C15.1964 18.4312 -5.55975 39.1873 -5.55975 64.7914C-5.55975 90.3955 15.1964 111.152 40.8005 111.152Z"
              stroke="#FAFAFA" stroke-linecap="round" stroke-linejoin="round"/>
        <path opacity="0.81"
              d="M40.8005 108.733C65.0688 108.733 84.7421 89.0599 84.7421 64.7917C84.7421 40.5234 65.0688 20.8501 40.8005 20.8501C16.5323 20.8501 -3.14105 40.5234 -3.14105 64.7917C-3.14105 89.0599 16.5323 108.733 40.8005 108.733Z"
              stroke="#FAFAFA" stroke-linecap="round" stroke-linejoin="round"/>
        <path opacity="0.81"
              d="M40.8005 106.319C63.7353 106.319 82.3276 87.7265 82.3276 64.7918C82.3276 41.857 63.7353 23.2646 40.8005 23.2646C17.8657 23.2646 -0.726624 41.857 -0.726624 64.7918C-0.726624 87.7265 17.8657 106.319 40.8005 106.319Z"
              stroke="#FAFAFA" stroke-linecap="round" stroke-linejoin="round"/>
        <path opacity="0.81"
              d="M40.8005 103.9C62.3995 103.9 79.9089 86.3905 79.9089 64.7915C79.9089 43.1925 62.3995 25.6831 40.8005 25.6831C19.2015 25.6831 1.69208 43.1925 1.69208 64.7915C1.69208 86.3905 19.2015 103.9 40.8005 103.9Z"
              stroke="#FAFAFA" stroke-linecap="round" stroke-linejoin="round"/>
        <path opacity="0.81"
              d="M40.8005 101.481C61.0637 101.481 77.4902 85.0545 77.4902 64.7913C77.4902 44.5281 61.0637 28.1016 40.8005 28.1016C20.5373 28.1016 4.11078 44.5281 4.11078 64.7913C4.11078 85.0545 20.5373 101.481 40.8005 101.481Z"
              stroke="#FAFAFA" stroke-linecap="round" stroke-linejoin="round"/>
        <path opacity="0.81"
              d="M74.9608 65.9296C75.718 46.9999 60.9862 31.0406 42.0565 30.2834C23.1268 29.5262 7.16744 44.2579 6.41026 63.1876C5.65307 82.1173 20.3848 98.0767 39.3145 98.8339C58.2442 99.5911 74.2036 84.8593 74.9608 65.9296Z"
              stroke="#FAFAFA" stroke-linecap="round" stroke-linejoin="round"/>
        <path opacity="0.81"
              d="M40.8005 96.6482C58.3944 96.6482 72.6571 82.3855 72.6571 64.7916C72.6571 47.1977 58.3944 32.9351 40.8005 32.9351C23.2066 32.9351 8.94391 47.1977 8.94391 64.7916C8.94391 82.3855 23.2066 96.6482 40.8005 96.6482Z"
              stroke="#FAFAFA" stroke-linecap="round" stroke-linejoin="round"/>
        <path opacity="0.81"
              d="M40.8005 94.2338C57.0609 94.2338 70.2426 81.0522 70.2426 64.7917C70.2426 48.5313 57.0609 35.3496 40.8005 35.3496C24.54 35.3496 11.3583 48.5313 11.3583 64.7917C11.3583 81.0522 24.54 94.2338 40.8005 94.2338Z"
              stroke="#FAFAFA" stroke-linecap="round" stroke-linejoin="round"/>
        <path opacity="0.81"
              d="M40.8005 91.8149C55.7251 91.8149 67.8239 79.7161 67.8239 64.7915C67.8239 49.8669 55.7251 37.7681 40.8005 37.7681C25.8758 37.7681 13.777 49.8669 13.777 64.7915C13.777 79.7161 25.8758 91.8149 40.8005 91.8149Z"
              stroke="#FAFAFA" stroke-linecap="round" stroke-linejoin="round"/>
        <path opacity="0.81"
              d="M40.8005 89.396C54.3893 89.396 65.4052 78.3801 65.4052 64.7913C65.4052 51.2024 54.3893 40.1865 40.8005 40.1865C27.2117 40.1865 16.1957 51.2024 16.1957 64.7913C16.1957 78.3801 27.2117 89.396 40.8005 89.396Z"
              stroke="#FAFAFA" stroke-linecap="round" stroke-linejoin="round"/>
        <path opacity="0.81"
              d="M40.8005 86.9821C53.0558 86.9821 62.9907 77.0472 62.9907 64.7918C62.9907 52.5365 53.0558 42.6016 40.8005 42.6016C28.5451 42.6016 18.6102 52.5365 18.6102 64.7918C18.6102 77.0472 28.5451 86.9821 40.8005 86.9821Z"
              stroke="#FAFAFA" stroke-linecap="round" stroke-linejoin="round"/>
        <path opacity="0.81"
              d="M40.8005 84.5632C51.72 84.5632 60.5721 75.7112 60.5721 64.7916C60.5721 53.8721 51.72 45.02 40.8005 45.02C29.8809 45.02 21.0289 53.8721 21.0289 64.7916C21.0289 75.7112 29.8809 84.5632 40.8005 84.5632Z"
              stroke="#FAFAFA" stroke-linecap="round" stroke-linejoin="round"/>
        <path opacity="0.81"
              d="M40.8005 82.1488C50.3866 82.1488 58.1576 74.3778 58.1576 64.7917C58.1576 55.2056 50.3866 47.4346 40.8005 47.4346C31.2144 47.4346 23.4434 55.2056 23.4434 64.7917C23.4434 74.3778 31.2144 82.1488 40.8005 82.1488Z"
              stroke="#FAFAFA" stroke-linecap="round" stroke-linejoin="round"/>
        <path opacity="0.81"
              d="M40.8005 79.7299C49.0508 79.7299 55.739 73.0417 55.739 64.7915C55.739 56.5412 49.0508 49.853 40.8005 49.853C32.5502 49.853 25.8621 56.5412 25.8621 64.7915C25.8621 73.0417 32.5502 79.7299 40.8005 79.7299Z"
              stroke="#FAFAFA" stroke-linecap="round" stroke-linejoin="round"/>
        <path opacity="0.81"
              d="M52.9773 67.6901C54.5821 60.9644 50.4308 54.2113 43.7051 52.6065C36.9794 51.0017 30.2263 55.1531 28.6215 61.8787C27.0167 68.6044 31.1681 75.3576 37.8937 76.9623C44.6194 78.5671 51.3725 74.4158 52.9773 67.6901Z"
              stroke="#FAFAFA" stroke-linecap="round" stroke-linejoin="round"/>
    </g>
    <defs>
        <filter id="filter0_d_1021:1087" x="-6" y="20" width="186" height="186" filterUnits="userSpaceOnUse"
                color-interpolation-filters="sRGB">
            <feFlood flood-opacity="0" result="BackgroundImageFix"/>
            <feColorMatrix in="SourceAlpha" type="matrix" values="0 0 0 0 0 0 0 0 0 0 0 0 0 0 0 0 0 0 127 0"
                           result="hardAlpha"/>
            <feOffset dy="4"/>
            <feGaussianBlur stdDeviation="10"/>
            <feComposite in2="hardAlpha" operator="out"/>
            <feColorMatrix type="matrix" values="0 0 0 0 0.5 0 0 0 0 1 0 0 0 0 0.625065 0 0 0 0.5 0"/>
            <feBlend mode="normal" in2="BackgroundImageFix" result="effect1_dropShadow_1021:1087"/>
            <feBlend mode="normal" in="SourceGraphic" in2="effect1_dropShadow_1021:1087" result="shape"/>
        </filter>
        <filter id="filter1_d_1021:1087" x="160" y="14" width="77" height="77" filterUnits="userSpaceOnUse"
                color-interpolation-filters="sRGB">
            <feFlood flood-opacity="0" result="BackgroundImageFix"/>
            <feColorMatrix in="SourceAlpha" type="matrix" values="0 0 0 0 0 0 0 0 0 0 0 0 0 0 0 0 0 0 127 0"
                           result="hardAlpha"/>
            <feMorphology radius="2" operator="dilate" in="SourceAlpha" result="effect1_dropShadow_1021:1087"/>
            <feOffset dy="4"/>
            <feGaussianBlur stdDeviation="10"/>
            <feComposite in2="hardAlpha" operator="out"/>
            <feColorMatrix type="matrix" values="0 0 0 0 0.5 0 0 0 0 1 0 0 0 0 0.625065 0 0 0 0.5 0"/>
            <feBlend mode="normal" in2="BackgroundImageFix" result="effect1_dropShadow_1021:1087"/>
            <feBlend mode="normal" in="SourceGraphic" in2="effect1_dropShadow_1021:1087" result="shape"/>
        </filter>
        <linearGradient id="paint0_linear_1021:1087" x1="49.7843" y1="48.8823" x2="131.373" y2="188.441"
                        gradientUnits="userSpaceOnUse">
            <stop offset="0.0337936" stop-color="#56CCF2"/>
            <stop offset="1" stop-color="#80FF9F"/>
        </linearGradient>
        <linearGradient id="paint1_linear_1021:1087" x1="190.088" y1="34.9118" x2="208.529" y2="66.4559"
                        gradientUnits="userSpaceOnUse">
            <stop offset="0.0337936" stop-color="#56CCF2"/>
            <stop offset="1" stop-color="#80FF9F"/>
        </linearGradient>
    </defs>
</svg>

<svg width="237" height="206" fill="none" xmlns="http://www.w3.org/2000/svg"><g filter="url(#a)"><circle cx="87" cy="109" r="73" fill="url(#b)"/></g><g filter="url(#c)"><circle cx="198.5" cy="48.5" r="16.5" fill="url(#d)"/></g><g opacity=".81" stroke="#FAFAFA" stroke-linecap="round" stroke-linejoin="round"><path opacity=".81" d="M40.8 128.07c34.948 0 63.279-28.33 63.279-63.278S75.749 1.513 40.801 1.513s-63.279 28.33-63.279 63.279c0 34.947 28.33 63.278 63.279 63.278Z" stroke-width="1.05"/><path opacity=".81" d="M40.8 125.651c33.612 0 60.86-27.248 60.86-60.86 0-33.611-27.248-60.86-60.86-60.86-33.611 0-60.86 27.248-60.86 60.86 0 33.612 27.249 60.86 60.86 60.86Z"/><path opacity=".81" d="M40.8 123.237c32.279 0 58.446-26.167 58.446-58.446 0-32.278-26.167-58.445-58.445-58.445-32.279 0-58.446 26.167-58.446 58.445 0 32.279 26.167 58.446 58.445 58.446Z"/><path opacity=".81" d="M40.8 120.818c30.943 0 56.027-25.084 56.027-56.027 0-30.942-25.084-56.026-56.026-56.026-30.943 0-56.027 25.084-56.027 56.026 0 30.943 25.084 56.027 56.026 56.027Z"/><path opacity=".81" d="M40.8 118.404c29.61 0 53.612-24.003 53.612-53.612 0-29.61-24.002-53.612-53.612-53.612-29.609 0-53.612 24.003-53.612 53.612s24.003 53.612 53.612 53.612Z"/><path opacity=".81" d="M40.8 115.985c28.274 0 51.194-22.92 51.194-51.194 0-28.273-22.92-51.193-51.194-51.193-28.273 0-51.193 22.92-51.193 51.194 0 28.273 22.92 51.193 51.194 51.193Z"/><path opacity=".81" d="M40.8 113.567c26.938 0 48.775-21.838 48.775-48.775 0-26.938-21.837-48.775-48.775-48.775-26.937 0-48.774 21.837-48.774 48.775 0 26.937 21.837 48.775 48.775 48.775Z"/><path opacity=".81" d="M40.8 111.152c25.605 0 46.36-20.757 46.36-46.36 0-25.605-20.755-46.36-46.36-46.36-25.604 0-46.36 20.755-46.36 46.36 0 25.603 20.756 46.36 46.36 46.36Z"/><path opacity=".81" d="M40.8 108.733c24.269 0 43.942-19.673 43.942-43.941 0-24.269-19.673-43.942-43.942-43.942-24.268 0-43.941 19.673-43.941 43.942 0 24.268 19.673 43.941 43.941 43.941Z"/><path opacity=".81" d="M40.8 106.319c22.935 0 41.528-18.593 41.528-41.527 0-22.935-18.593-41.527-41.528-41.527-22.934 0-41.527 18.592-41.527 41.527 0 22.934 18.593 41.527 41.527 41.527Z"/><path opacity=".81" d="M40.8 103.9c21.6 0 39.109-17.51 39.109-39.109 0-21.598-17.51-39.108-39.109-39.108-21.598 0-39.108 17.51-39.108 39.108 0 21.6 17.51 39.109 39.108 39.109Z"/><path opacity=".81" d="M40.8 101.481c20.264 0 36.69-16.426 36.69-36.69 0-20.263-16.426-36.69-36.69-36.69-20.263 0-36.69 16.427-36.69 36.69 0 20.264 16.427 36.69 36.69 36.69Z"/><path opacity=".81" d="M74.96 65.93C75.719 47 60.987 31.04 42.058 30.283c-18.93-.757-34.89 13.975-35.647 32.905-.757 18.93 13.975 34.889 32.904 35.646 18.93.757 34.89-13.975 35.647-32.904Z"/><path opacity=".81" d="M40.8 96.648c17.594 0 31.857-14.263 31.857-31.856 0-17.594-14.263-31.857-31.856-31.857-17.594 0-31.857 14.263-31.857 31.857 0 17.593 14.263 31.856 31.856 31.856Z"/><path opacity=".81" d="M40.8 94.234c16.26 0 29.443-13.182 29.443-29.442 0-16.26-13.182-29.442-29.442-29.442-16.261 0-29.443 13.181-29.443 29.442 0 16.26 13.182 29.442 29.442 29.442Z"/><path opacity=".81" d="M40.8 91.815c14.925 0 27.024-12.099 27.024-27.023 0-14.925-12.099-27.024-27.023-27.024-14.925 0-27.024 12.099-27.024 27.023 0 14.925 12.099 27.024 27.023 27.024Z"/><path opacity=".81" d="M40.8 89.396c13.59 0 24.605-11.016 24.605-24.605S54.39 40.187 40.8 40.187c-13.588 0-24.604 11.015-24.604 24.604 0 13.59 11.016 24.605 24.604 24.605Z"/><path opacity=".81" d="M40.8 86.982c12.256 0 22.19-9.935 22.19-22.19 0-12.256-9.934-22.19-22.19-22.19-12.255 0-22.19 9.934-22.19 22.19 0 12.255 9.935 22.19 22.19 22.19Z"/><path opacity=".81" d="M40.8 84.563c10.92 0 19.772-8.852 19.772-19.771 0-10.92-8.852-19.772-19.772-19.772-10.92 0-19.771 8.852-19.771 19.772 0 10.92 8.852 19.771 19.771 19.771Z"/><path opacity=".81" d="M40.8 82.149c9.587 0 17.358-7.771 17.358-17.357 0-9.586-7.771-17.357-17.358-17.357-9.586 0-17.357 7.77-17.357 17.357 0 9.586 7.771 17.357 17.357 17.357Z"/><path opacity=".81" d="M40.8 79.73c8.25 0 14.939-6.688 14.939-14.939 0-8.25-6.688-14.938-14.938-14.938s-14.939 6.688-14.939 14.938S32.55 79.73 40.801 79.73Z"/><path opacity=".81" d="M52.977 67.69c1.605-6.726-2.546-13.479-9.272-15.084-6.726-1.604-13.479 2.547-15.083 9.273-1.605 6.725 2.546 13.479 9.272 15.083 6.725 1.605 13.479-2.546 15.083-9.272Z"/></g><defs><linearGradient id="b" x1="49.784" y1="48.882" x2="131.373" y2="188.441" gradientUnits="userSpaceOnUse"><stop offset=".034" stop-color="#56CCF2"/><stop offset="1" stop-color="#80FF9F"/></linearGradient><linearGradient id="d" x1="190.088" y1="34.912" x2="208.529" y2="66.456" gradientUnits="userSpaceOnUse"><stop offset=".034" stop-color="#56CCF2"/><stop offset="1" stop-color="#80FF9F"/></linearGradient><filter id="a" x="-6" y="20" width="186" height="186" filterUnits="userSpaceOnUse" color-interpolation-filters="sRGB"><feFlood flood-opacity="0" result="BackgroundImageFix"/><feColorMatrix in="SourceAlpha" values="0 0 0 0 0 0 0 0 0 0 0 0 0 0 0 0 0 0 127 0" result="hardAlpha"/><feOffset dy="4"/><feGaussianBlur stdDeviation="10"/><feComposite in2="hardAlpha" operator="out"/><feColorMatrix values="0 0 0 0 0.5 0 0 0 0 1 0 0 0 0 0.625065 0 0 0 0.5 0"/><feBlend in2="BackgroundImageFix" result="effect1_dropShadow_1021:1087"/><feBlend in="SourceGraphic" in2="effect1_dropShadow_1021:1087" result="shape"/></filter><filter id="c" x="160" y="14" width="77" height="77" filterUnits="userSpaceOnUse" color-interpolation-filters="sRGB"><feFlood flood-opacity="0" result="BackgroundImageFix"/><feColorMatrix in="SourceAlpha" values="0 0 0 0 0 0 0 0 0 0 0 0 0 0 0 0 0 0 127 0" result="hardAlpha"/><feMorphology radius="2" operator="dilate" in="SourceAlpha" result="effect1_dropShadow_1021:1087"/><feOffset dy="4"/><feGaussianBlur stdDeviation="10"/><feComposite in2="hardAlpha" operator="out"/><feColorMatrix values="0 0 0 0 0.5 0 0 0 0 1 0 0 0 0 0.625065 0 0 0 0.5 0"/><feBlend in2="BackgroundImageFix" result="effect1_dropShadow_1021:1087"/><feBlend in="SourceGraphic" in2="effect1_dropShadow_1021:1087" result="shape"/></filter></defs></svg>
